X:84
T:Cinq Jumelles                                                                                     
M:2/4                                                                                               
L:1/16                                                                                              
C:Raynald Quellet                                                                                   
K:D                                                                                                 
Adfd gdfd|Adfd BcdB|Adfd gdfd|1 efec fdd2:|2 efec defg||                                            
|: afbf afde|fded BcBA|afbf afde|1 fdec daaa:|2fdec d2(3BcB||                                       
|:Adfd gdfd|Acfd BcdB|Adfd gdfd|1efec fdd2:|2efec defg||                                            
|:afbf afde|fded BcBA|afbf afde|1fdec daaa:|2efec d2d2||                                            
|:BBAG BBAG|BGFG EEGA|BBAG BBAG|1 BBAF Gdd2:|2 (3BdB AF G2 (3fdA ||                                 
|:F2Ad f3F|G2Bd g3A|Acef ge (3cec|defg afdA|                                                        
F2Ad FfdA|G2Bd g3A|Acef ge (3cec|1dfec (3dcB AG:|2dfec defg||                                       
|:a2fd adfa|gega geeg|a2fd adfa|gece  defg|                                                         
a2fd adfa|gega geeg|a2fd adfa|1gece defg:|2gece d2 (3BcB |>|
